X:43
T:City of Savannah
C:F Livingstone
D:Matt Moloy:Stony Steps
M:4/4
L:1/8
R:hornpipe
Z:robin.beech@mcgill.ca
K:D
(3ABA FA dfaf | gaba gfed | cded cdBc | ABGA FFG^G|
(3ABA FA dfaf | gaba gfed | cbag feBc | d2f2d2z2 ::
(3efe ce  aec'e | be^ge aebe | (3efe ce aec'e | be^ge a2a2 |
(3aba ga ea ca | (3aba fa daAa | (3gag Bg (3fgf Af | eABc d2z2 :|
